Suru++-Ubuntu/apps/symbolic/user-info-symbolic.svg

<svg width="16" height="16" version="1.1" xmlns="http://www.w3.org/2000/svg">
 <g transform="translate(-632 -180)" style="fill:#808080">
  <path transform="translate(632,180)" d="m8 1c-0.529 0-1.0321406 0.097922-1.4941406 0.2949219-0.46 0.188-0.8680313 0.4633125-1.2070313 0.8203125l-0.00195 0.00391-0.00195 0.00195c-0.33 0.359-0.585625 0.7892968-0.765625 1.2792968-0.185144 0.5133753-0.2764412 1.0558659-0.2695313 1.6015625 0 0.58 0.086531 1.1213282 0.2695313 1.6113281 0.18 0.482 0.435625 0.907625 0.765625 1.265625l0.0039 0.0039c0.338 0.3560057 0.7431719 0.636037 1.2011719 0.832037l0.00782 0.0039c0.4619925 0.1880062 0.96418 0.2812562 1.49218 0.2812562v-0.125c0-0.49244 0.38255-0.875 0.875-0.875h1.685547c0.04065-0.0381 0.08037-0.077174 0.119141-0.1171875 0.34-0.358 0.60125-0.7855312 0.78125-1.2695313 0.184999-0.49 0.271484-1.0312812 0.271484-1.6132812h0.0078c0-0.573-0.08653-1.1086562-0.269531-1.5976562-0.169708-0.4767572-0.435629-0.9135326-0.781238-1.2832032-0.333006-0.3592651-0.7411319-0.6406852-1.1953124-0.8242187-0.4728795-0.1986603-0.9812427-0.29900389-1.4941406-0.2949219zm0 1c0.406 0 0.7695625 0.072844 1.1015625 0.2148438l0.00977 0.00391 0.00977 0.00195c0.33 0.135 0.6078906 0.3261719 0.8378906 0.5761719v0.00977c0.2399996 0.253 0.4303596 0.5634531 0.5683596 0.9394532v0.00586c0.13 0.351 0.194219 0.7521719 0.199218 1.2011719v0.0468692c0 0.482-0.07203 0.8997188-0.207031 1.2617188v0.00195c-0.1248557 0.3460657-0.3189067 0.6630606-0.5703209 0.9316437l-0.00977 0.00391v0.00391c-0.234 0.253-0.5136562 0.44975-0.8476562 0.59375-0.3473675 0.1376697-0.7181488 0.2066523-1.0917926 0.2031175-0.41 0-0.776375-0.0720313-1.109375-0.2070312h-0.00391c-0.3249963-0.14-0.5998869-0.3370313-0.8378869-0.5820313l-0.050781-0.070312-0.00781-0.00586c-0.2261929-0.2559781-0.4035977-0.5512114-0.5234402-0.8710936-0.1440777-0.4054402-0.2142003-0.8334525-0.2070313-1.2636719 0-0.471 0.071031-0.886 0.2070313-1.25l0.00195-0.00195v-0.00391c0.138-0.376 0.3246875-0.6835468 0.5546875-0.9355468l0.011719-0.00977c0.2400001-0.25 0.5196094-0.443125 0.8496094-0.578125l0.00586-0.00391 0.00781-0.00195c0.3300047-0.1399944 0.6955672-0.2148382 1.1015672-0.2148382zm0 9.025391c-2.8609384 2e-3 -4.4031983 0.269107-5.5488281 1.132812-0.575 0.434-0.9539688 1.022938-1.1679688 1.710938s-0.2812031 1.214906-0.2832031 2.128906l1 0.001953c2e-3 -0.865 0.072281-1.298031 0.2382812-1.832031 0.1660001-0.534 0.4114063-0.905938 0.8164063-1.210938 0.8067959-0.608583 2.154938-0.931057 4.9453125-0.933593z" style="fill:#808080"/>
 </g>
 <path d="m8.8750002 8.000015c-0.4924502 0-0.8750002 0.38256-0.8750002 0.875v6.25c0 0.49244 0.38255 0.875 0.8750002 0.875h6.2499998c0.49245 0 0.875-0.38256 0.875-0.875v-6.25c0-0.49244-0.38255-0.875-0.875-0.875zm2.1249998 1h2v1h-2zm0 2h2v4h-2z" style="fill:#808080"/>
</svg>

<svg xmlns="http://www.w3.org/2000/svg" width="16" height="16" version="1.1">
 <g color="#000" transform="translate(-632 -180)" style="fill:#808080">
  <path style="fill:#808080" d="m 8,1 c -0.529,0 -1.0321406,0.097922 -1.4941406,0.2949219 -0.46,0.188 -0.8680313,0.4633125 -1.2070313,0.8203125 l -0.00195,0.00391 -0.00195,0.00195 c -0.33,0.359 -0.585625,0.7892968 -0.765625,1.2792968 -0.185144,0.5133753 -0.2764412,1.0558659 -0.2695313,1.6015625 0,0.58 0.086531,1.1213282 0.2695313,1.6113281 0.18,0.482 0.435625,0.907625 0.765625,1.265625 l 0.00195,0.00195 0.00195,0.00195 C 5.6368281,8.2388125 6.042,8.5188438 6.5,8.7148438 l 0.00391,0.00195 0.00391,0.00195 C 6.9698125,8.90675 7.472,9 8,9 V 8.875 C 8,8.38256 8.38255,8 8.875,8 h 1.685547 c 0.04065,-0.0381 0.08037,-0.077174 0.119141,-0.1171875 0.34,-0.358 0.60125,-0.7855312 0.78125,-1.2695313 C 11.645937,6.1232812 11.732422,5.582 11.732422,5 h 0.0078 c 0,-0.573 -0.08653,-1.1086562 -0.269531,-1.5976562 C 11.300983,2.9255866 11.035062,2.4888112 10.689453,2.1191406 10.356447,1.7598755 9.9483211,1.4784554 9.4941406,1.2949219 9.0212611,1.0962616 8.5128979,0.99591801 8,1 Z m 0,1 c 0.406,0 0.7695625,0.072844 1.1015625,0.2148438 l 0.00977,0.00391 0.00977,0.00195 c 0.33,0.135 0.6078906,0.3261719 0.8378906,0.5761719 v 0.00977 c 0.2399996,0.253 0.4303596,0.5634531 0.5683596,0.9394532 v 0.00586 c 0.13,0.351 0.194219,0.7521719 0.199218,1.2011719 V 5 c 0,0.482 -0.07203,0.8997188 -0.207031,1.2617188 v 0.00195 C 10.394684,6.6097345 10.200633,6.9267294 9.9492188,7.1953125 l -0.00977,0.00391 v 0.00391 c -0.234,0.253 -0.5136562,0.44975 -0.8476562,0.59375 C 8.7444251,7.9345522 8.3736438,8.0035348 8,8 7.59,8 7.223625,7.9279687 6.890625,7.7929688 h -0.00391 C 6.5617187,7.6529688 6.2868281,7.4559375 6.0488281,7.2109375 l -0.050781,-0.070312 -0.00781,-0.00586 C 5.7640442,6.8787874 5.5866394,6.5835541 5.4667969,6.2636719 5.3227192,5.8582317 5.2525966,5.4302194 5.2597656,5 c 0,-0.471 0.071031,-0.886 0.2070313,-1.25 l 0.00195,-0.00195 v -0.00391 c 0.138,-0.376 0.3246875,-0.6835468 0.5546875,-0.9355468 l 0.011719,-0.00977 c 0.2400001,-0.25 0.5196094,-0.443125 0.8496094,-0.578125 l 0.00586,-0.00391 0.00781,-0.00195 C 7.2284375,2.0748438 7.594,2 8,2 Z m 0,9.025391 c -2.8609384,0.002 -4.4031983,0.269107 -5.5488281,1.132812 -0.575,0.434 -0.9539688,1.022938 -1.1679688,1.710938 C 1.0692031,14.557141 1.002,15.084047 1,15.998047 L 2,16 c 0.002,-0.865 0.072281,-1.298031 0.2382812,-1.832031 0.1660001,-0.534 0.4114063,-0.905938 0.8164063,-1.210938 C 3.8614834,12.348448 5.2096255,12.025974 8,12.023438 Z" transform="translate(632,180)"/>
 </g>
 <path d="M 8.8750002,8.000015 C 8.38255,8.000015 8,8.382575 8,8.875015 v 6.25 c 0,0.49244 0.38255,0.875 0.8750002,0.875 H 15.125 c 0.49245,0 0.875,-0.38256 0.875,-0.875 v -6.25 c 0,-0.49244 -0.38255,-0.875 -0.875,-0.875 z m 2.1249998,1 h 2 v 1 h -2 z m 0,2 h 2 v 4 h -2 z" style="fill:#808080"/>
</svg>
